X: 135
T: A Chur Nan Gobhar As A 'Chreig
R: reel
M: 4/4
K: Dmajor
|:A2 AF Adef -|fAfe dBBd|A2 (3AAA ABde|f2 af eddB|
ABAF Adef -|fAfe dBBd|A2 (3AAA ABde|f2 af edde:|
|:f3g fedf|e2fe dBBe|f3g fedf|e2fe edde|
f3a- afdf|e2fe dBBd|A2 (3AAA ABde|faag fedB:|

